packages/icon/src/svg/pencil.icon.svg

<?xml version="1.0" encoding="UTF-8"?>
<svg width="24px" height="24px" viewBox="0 0 24 24" version="1.1" xmlns="http://www.w3.org/2000/svg" xmlns:xlink="http://www.w3.org/1999/xlink">
    <!-- Generator: Sketch 46.1 (44463) - http://www.bohemiancoding.com/sketch -->
    <title>Icon/pencil.icon</title>
    <desc>Created with Sketch.</desc>
    <defs>
        <path d="M5.27617034,15.8619568 L5,19 L8.13924322,18.7250297 L16.2250297,10.6392432 L13.3619568,7.77617034 L5.27617034,15.8619568 Z M17.6392432,9.22502966 L18.4059864,8.45828644 C18.7901299,8.074143 18.9982,7.57117649 18.9982,7.0265 C18.9982,6.48095085 18.7902586,5.97848007 18.4049864,5.59371356 C18.0211641,5.20989119 17.5199145,5.0025 16.9742,5.0025 C16.4295857,5.0025 15.9271342,5.21048728 15.5424136,5.59571356 L14.7761703,6.36195678 L17.6392432,9.22502966 Z M16.9742,3.0025 C18.0502,3.0025 19.0602,3.4205 19.8192,4.1795 C20.5802,4.9395 20.9982,5.9515 20.9982,7.0265 C20.9982,8.1005 20.5802,9.1125 19.8202,9.8725 L9.4112,20.2815 C9.2832,20.4095 9.1222,20.5015 8.9472,20.5445 L4.2422,20.9715 C3.9022,21.0565 3.5402,20.9565 3.2932,20.7075 C3.0452,20.4605 2.9452,20.0995 3.0292,19.7585 L3.4562,15.0545 C3.5002,14.8785 3.5912,14.7185 3.7192,14.5905 L14.1282,4.1815 C14.8882,3.4205 15.9002,3.0025 16.9742,3.0025 Z" id="path-1"></path>
    </defs>
    <g id="Symbols" stroke="none" stroke-width="1" fill="none" fill-rule="evenodd">
        <g id="Icon/pencil">
            <mask id="mask-2" fill="white">
                <use xlink:href="#path-1"></use>
            </mask>
            <use id="Combined-Shape" fill="#000000" fill-rule="nonzero" xlink:href="#path-1"></use>
            <g id="Color/Neutral/White" mask="url(#mask-2)" fill="#FFFFFF">
                <rect id="222222-Fill" x="0" y="0" width="24" height="24"></rect>
            </g>
        </g>
    </g>
</svg>

<svg viewBox="0 0 24 24" xmlns="http://www.w3.org/2000/svg"><path d="M5.2762 15.862L5 19l3.1392-.275 8.0858-8.0858-2.863-2.863-8.0858 8.0858zm12.363-6.637l.7668-.7667c.384-.3842.5922-.887.5922-1.4318 0-.5455-.208-1.048-.5932-1.4328-.3838-.3838-.885-.5912-1.4308-.5912-.5446 0-1.047.208-1.4318.5932l-.7662.7663 2.863 2.863zm-.665-6.2225c1.076 0 2.086.418 2.845 1.177.761.76 1.179 1.772 1.179 2.847 0 1.074-.418 2.086-1.178 2.846l-10.409 10.409c-.128.128-.289.22-.464.263l-4.705.427c-.34.085-.702-.015-.949-.264-.248-.247-.348-.608-.264-.949l.427-4.704c.044-.176.135-.336.263-.464l10.409-10.409c.76-.761 1.772-1.179 2.846-1.179z" /></svg>
